actions/24/dialog-input-devices.svg

<?xml version="1.0" encoding="UTF-8" standalone="no"?>
<svg
   width="24"
   height="24"
   version="1.1"
   id="svg11"
   sodipodi:docname="dialog-input-devices.svg"
   inkscape:version="1.1.2 (0a00cf5339, 2022-02-04)"
   xmlns:inkscape="http://www.inkscape.org/namespaces/inkscape"
   xmlns:sodipodi="http://sodipodi.sourceforge.net/DTD/sodipodi-0.dtd"
   xmlns="http://www.w3.org/2000/svg"
   xmlns:svg="http://www.w3.org/2000/svg">
  <sodipodi:namedview
     id="namedview13"
     pagecolor="#000000"
     bordercolor="#666666"
     borderopacity="1.0"
     inkscape:pageshadow="2"
     inkscape:pageopacity="0"
     inkscape:pagecheckerboard="0"
     showgrid="false"
     inkscape:zoom="28.416667"
     inkscape:cx="12"
     inkscape:cy="11.964809"
     inkscape:window-width="1837"
     inkscape:window-height="967"
     inkscape:window-x="0"
     inkscape:window-y="29"
     inkscape:window-maximized="1"
     inkscape:current-layer="g9" />
  <defs
     id="defs3">
    <style
       id="current-color-scheme"
       type="text/css">
   .ColorScheme-Text { color:#eeeeec; } .ColorScheme-Highlight { color:#367bf0; } .ColorScheme-NeutralText { color:#ffcc44; } .ColorScheme-PositiveText { color:#3db47e; } .ColorScheme-NegativeText { color:#dd4747; }
  </style>
  </defs>
  <g
     transform="translate(4,4)"
     id="g9">
    <path
       style="fill:currentColor"
       class="ColorScheme-Text"
       d="M 7,3 V 9 H 4 V 7 H 2 v 2 c 0,0 0,2 2,2 h 3 v 3 h 2 v -3 h 3 c 2,0 2,-2 2,-2 V 7 H 12 V 9 H 9 V 3 Z M 8.4614558,0.73832926 7.5324023,0.74815634 5.976769,3.2371696 6.107031,4 V 4 H 9.8711038 V 4 L 10.077014,3.3232226 Z"
       id="path5"
       sodipodi:nodetypes="ccccccsccccscccccccccccccccc" />
    <path
       style="fill:currentColor"
       class="ColorScheme-Text"
       d="M 10,14 A 2,2 0 0 1 8,16 2,2 0 0 1 6,14 2,2 0 0 1 8,12 2,2 0 0 1 10,14 Z M 12,4 H 14 C 14,4 15,4 15,5 V 7 C 15,8 14,8 14,8 H 12 C 12,8 11,8 11,7 V 5 C 11,4 12,4 12,4 Z M 5,6 A 2,2 0 0 1 3,8 2,2 0 0 1 1,6 2,2 0 0 1 3,4 2,2 0 0 1 5,6 Z"
       id="path7" />
  </g>
</svg>

<svg xmlns="http://www.w3.org/2000/svg" width="24" height="24" version="1.1">
 <defs>
  <style id="current-color-scheme" type="text/css">
   .ColorScheme-Text { color:#eeeeec; } .ColorScheme-Highlight { color:#367bf0; } .ColorScheme-NeutralText { color:#ffcc44; } .ColorScheme-PositiveText { color:#3db47e; } .ColorScheme-NegativeText { color:#dd4747; }
  </style>
 </defs>
 <g transform="translate(4,4)">
  <path style="fill:currentColor" class="ColorScheme-Text" d="M 7,3 V 9 H 4 V 7 H 2 V 9 C 2,9 2,11 4,11 H 7 V 14 H 9 V 11 H 12 C 14,11 14,9 14,9 V 7 H 12 V 9 H 9 V 3 Z M 8,0 5.5,4 H 10.5 Z"/>
  <path style="fill:currentColor" class="ColorScheme-Text" d="M 10,14 A 2,2 0 0 1 8,16 2,2 0 0 1 6,14 2,2 0 0 1 8,12 2,2 0 0 1 10,14 Z M 12,4 H 14 C 14,4 15,4 15,5 V 7 C 15,8 14,8 14,8 H 12 C 12,8 11,8 11,7 V 5 C 11,4 12,4 12,4 Z M 5,6 A 2,2 0 0 1 3,8 2,2 0 0 1 1,6 2,2 0 0 1 3,4 2,2 0 0 1 5,6 Z"/>
 </g>
</svg>
